X:159
T:Rolling Down The Hill
T:Lord McDonald's
S:John Williams, Steam
Z:robin.beech@mcgill.ca
M:4/4
L:1/8
R:reel
K:Dmix
e2^cA eAAA | GEDE G2EG | AGAB cBcd | efge d2gf |
e2^cA eAAA | GEDE G2EG | AGAB cBcd | efge dcBc ||
dggg dgbg | eaaa eaag | efge defg | afge dcBc |
dggg dgbg | eaaa eaag | e2ge defg | afge defg |]
